X:1
T:Adam In The Garden Pinnin' Leaves
M:2/2
L:1/4
K:F
 F2 A- F| F3/2 F/2 D C| G2 B3/2- G/2| c3/2 c/2 A F| c2 c z| B3/2 B/2 G G|\
 E/2G/2 E/2C/2 D C| F/2 F F3/2| F| _A F _E E/2C/2|D/2-_E/2 D/2 C/2- C F|\
 F/2F/2 F/2F/2 _E C| F/2 F F| A/2^G/2| A F F/2F/2 F|D/2-_E/2 D/2 C/2- C F|\
 F/2F/2 F/2F/2 D C| F/2 F F z||
